assets/svg/solitude/nordic_yes-nBC5myu.svg

<svg height="72" viewBox="0 0 72 72" width="72" xmlns="http://www.w3.org/2000/svg"><path d="m28.46172 23.54844c.2628.0192.4596.2484.4404.51-.0024.0288-.0552.7164-.324 1.3776-.4344 1.0644-1.4004 1.7016-2.5836 1.7016h-25.518c-.2628 0-.4764-.2136-.4764-.4776 0-.2628.2136-.4764.4764-.4764h20.8392c.7944 0 1.4136-.4032 1.7004-1.1076.21-.5148.2568-1.0812.2568-1.0872.0192-.2628.2436-.4608.5112-.4404.2616.0192.4584.2484.4392.51-.0012.0288-.0552.7164-.324 1.3776-.114.2808-.2676.5304-.4512.7476h2.5464c.7932 0 1.4136-.4032 1.7004-1.1076.21-.5148.2556-1.0812.2568-1.0872.018-.2628.2436-.4608.51-.4404zm-14.05032-18.51264c2.1957692.86423077 8.9447929 4.9991716 9.4607004 5.3159655l.0312996.0192345c.4404.246.6108.7956.3852 1.2468-.1172571.2345143-.3209143.4002612-.5535394.4753259l-.1184606.0298741-2.5968 13.2876-.9348-.1824 2.6004-13.314-7.4172-2.862-.972 4.4604.0018.0084.0018.0084 4.3176 4.38c.1830857.1861714.2965224.4270041.3251965.683958l.0072035.129642v5.7648c0 .768-.6216 1.3896-1.3884 1.3896-.7216941 0-1.3147682-.5506215-1.3820444-1.255687l-.0063556-.133913v-5.0436l-.006-.0132-4.7988-3.8436c-.59472-.476-.8873387-1.231104-.7773646-1.9774969l.0297646-.1597031 1.602-7.0788c.2148-.984 1.2432-1.7088 2.1888-1.3356zm-2.89632 11.7378c.6435.300375.9421172 1.0384453.7079854 1.6931294l-.0539854.1296706-2.8896 6.0408c-.31284706.6561882-1.09021453.9275792-1.73683599.6340924l-.11956401-.0616924-.11302436-.0737063c-.46869795-.3406994-.66074666-.949936-.47147128-1.4988434l.05049564-.1254503 2.8128-6.0756c.318-.684 1.1304-.9804 1.8132-.6624zm3.98688-16.77276c1.278 0 2.3136 1.0344 2.3136 2.3124s-1.0356 2.3136-2.3136 2.3136c-1.2768 0-2.3136-1.0356-2.3136-2.3136s1.0368-2.3124 2.3136-2.3124z" fill="#322a2e" fill-rule="evenodd" transform="translate(22 22)"/></svg>

<?xml version="1.0" encoding="UTF-8"?>
<svg width="72px" height="72px" viewBox="0 0 72 72" version="1.1" xmlns="http://www.w3.org/2000/svg" xmlns:xlink="http://www.w3.org/1999/xlink">
    <!-- Generator: Sketch 58 (84663) - https://sketch.com -->
    <title>icons alone</title>
    <desc>Created with Sketch.</desc>
    <g id="icons-alone" stroke="none" stroke-width="1" fill="none" fill-rule="evenodd">
        <g id="Touring" transform="translate(22.000000, 22.000000)" fill="#322a2e">
            <g id="Group-10" transform="translate(0.000000, 0.000000)">
                <path d="M28.46172,23.54844 C28.72452,23.56764 28.92132,23.79684 28.90212,24.05844 C28.89972,24.08724 28.84692,24.77484 28.57812,25.43604 C28.14372,26.50044 27.17772,27.13764 25.99452,27.13764 L25.99452,27.13764 L0.47652,27.13764 C0.21372,27.13764 0.00012,26.92404 0.00012,26.66004 C0.00012,26.39724 0.21372,26.18364 0.47652,26.18364 L0.47652,26.18364 L21.31572,26.18364 C22.11012,26.18364 22.72932,25.78044 23.01612,25.07604 C23.22612,24.56124 23.27292,23.99484 23.27292,23.98884 C23.29212,23.72604 23.51652,23.52804 23.78412,23.54844 C24.04572,23.56764 24.24252,23.79684 24.22332,24.05844 C24.22212,24.08724 24.16812,24.77484 23.89932,25.43604 C23.78532,25.71684 23.63172,25.96644 23.44812,26.18364 L23.44812,26.18364 L25.99452,26.18364 C26.78772,26.18364 27.40812,25.78044 27.69492,25.07604 C27.90492,24.56124 27.95052,23.99484 27.95172,23.98884 C27.96972,23.72604 28.19532,23.52804 28.46172,23.54844 Z M14.4114,5.0358 C16.6071692,5.90003077 23.3561929,10.0349716 23.8721004,10.3517655 L23.9034,10.371 C24.3438,10.617 24.5142,11.1666 24.2886,11.6178 C24.1713429,11.8523143 23.9676857,12.0180612 23.7350606,12.0931259 L23.6166,12.123 L21.0198,25.4106 L20.085,25.2282 L22.6854,11.9142 L15.2682,9.0522 L14.2962,13.5126 L14.298,13.521 L14.2998,13.5294 L18.6174,17.9094 C18.8004857,18.0955714 18.9139224,18.3364041 18.9425965,18.593358 L18.9498,18.723 L18.9498,24.4878 C18.9498,25.2558 18.3282,25.8774 17.5614,25.8774 C16.8397059,25.8774 16.2466318,25.3267785 16.1793556,24.621713 L16.173,24.4878 L16.173,19.4442 L16.167,19.431 L11.3682,15.5874 C10.77348,15.1114 10.4808613,14.356296 10.5908354,13.6099031 L10.6206,13.4502 L12.2226,6.3714 C12.4374,5.3874 13.4658,4.6626 14.4114,5.0358 Z M11.51508,16.7736 C12.15858,17.073975 12.4571972,17.8120453 12.2230654,18.4667294 L12.16908,18.5964 L9.27948,24.6372 C8.96663294,25.2933882 8.18926547,25.5647792 7.54264401,25.2712924 L7.42308,25.2096 L7.31005564,25.1358937 C6.84135769,24.7951943 6.64930898,24.1859577 6.83858436,23.6370503 L6.88908,23.5116 L9.70188,17.436 C10.01988,16.752 10.83228,16.4556 11.51508,16.7736 Z M15.50196,0.00084 C16.77996,0.00084 17.81556,1.03524 17.81556,2.31324 C17.81556,3.59124 16.77996,4.62684 15.50196,4.62684 C14.22516,4.62684 13.18836,3.59124 13.18836,2.31324 C13.18836,1.03524 14.22516,0.00084 15.50196,0.00084 Z" id="Combined-Shape"></path>
            </g>
        </g>
    </g>
</svg>
